frontend/public/Images/Business/p6_redline.svg

<svg width="348" height="19" viewBox="0 0 348 19" fill="none" xmlns="http://www.w3.org/2000/svg">
<path d="M0 0.000339508C13.8484 4.16645 28.1871 6.9649 42.5502 9.48982L53.3593 11.2362L64.2175 12.7301C71.4481 13.8243 78.7522 14.4134 86.0318 15.213C115.224 18.1377 144.612 19.1476 173.951 18.9793C188.608 18.6216 203.29 18.4322 217.923 17.3802C225.227 16.8752 232.556 16.6017 239.835 15.8863C247.115 15.213 254.394 14.4976 261.674 13.7401L272.581 12.6039C276.209 12.1199 279.836 11.6781 283.439 11.1521L305.107 8.08007C319.494 5.70244 333.784 2.98816 348 0.000339508C333.343 0.673649 318.857 2.02027 304.322 2.96712L282.532 4.31374C278.905 4.52415 275.277 4.79768 271.674 5.07121L260.792 5.59724C253.537 5.91285 246.281 6.27055 239.051 6.67033C231.796 7.02802 224.541 7.17531 217.31 7.44884C202.824 8.12215 188.314 8.16424 173.828 8.50089C144.808 8.66922 115.837 8.29048 86.8652 7.04906C79.6346 6.71241 72.3795 6.37575 65.1489 5.89181L54.2907 5.23954L43.4326 4.37686C28.9224 3.30377 14.4612 1.89403 0 0.000339508Z" fill="#E50012"/>
</svg>

<svg width="348" height="19" fill="none" xmlns="http://www.w3.org/2000/svg"><path d="M0 0c13.848 4.166 28.187 6.965 42.55 9.49l10.81 1.746 10.858 1.494c7.23 1.094 14.534 1.683 21.814 2.483 29.192 2.925 58.58 3.935 87.919 3.766 14.657-.357 29.339-.547 43.972-1.599 7.304-.505 14.633-.778 21.912-1.494 7.28-.673 14.559-1.388 21.839-2.146l10.907-1.136c3.628-.484 7.255-.926 10.858-1.452l21.668-3.072C319.494 5.702 333.784 2.988 348 0c-14.657.674-29.143 2.02-43.678 2.967l-21.79 1.347c-3.627.21-7.255.484-10.858.757l-10.882.526c-7.255.316-14.511.674-21.741 1.073-7.255.358-14.51.505-21.741.779-14.486.673-28.996.715-43.482 1.052-29.02.168-57.991-.21-86.963-1.452-7.23-.337-14.486-.673-21.716-1.157L54.29 5.24l-10.858-.863C28.923 3.304 14.46 1.894 0 0z" fill="#E50012"/></svg>
